; generated by Slic3r 1.35.2-prusa3d-linux64 on 2017-12-21 at 14:52:40

; 

; external perimeters extrusion width = 0.40mm
; perimeters extrusion width = 0.48mm
; infill extrusion width = 0.48mm
; solid infill extrusion width = 0.48mm
; top infill extrusion width = 0.48mm
; support material extrusion width = 0.40mm
; first layer extrusion width = 0.60mm

M107
M104 S200 ; set temperature
G28 ; home all axes
G1 Z5 F5000 ; lift nozzle

; Filament gcode

M109 S200 ; set temperature and wait for it to be reached
G21 ; set units to millimeters
G90 ; use absolute coordinates
M82 ; use absolute distances for extrusion
G92 E0
G1 Z0.400 F7800.000
G1 E-3.00000 F2400.00000
G92 E0
G1 X54.784 Y75.257 F7800.000
G1 E3.00000 F2400.00000
G1 F1800
G1 X56.464 Y74.152 E3.22930
G1 X57.354 Y73.689 E3.34360
G1 X59.222 Y73.020 E3.56989
G1 X60.392 Y72.764 E3.70639
G1 X138.625 Y62.680 E12.69997
G1 X139.880 Y62.573 E12.84358
G1 X145.507 Y62.572 E13.48507
G1 X146.824 Y62.674 E13.63566
G1 X147.711 Y62.835 E13.73847
G1 X148.973 Y63.242 E13.88969
G1 X149.845 Y63.634 E13.99863
G1 X150.925 Y64.294 E14.14296
G1 X151.683 Y64.886 E14.25266
G1 X152.621 Y65.824 E14.40390
G1 X153.282 Y66.690 E14.52816
G1 X154.153 Y68.260 E14.73285
G1 X158.972 Y80.255 E16.20663
G1 X159.635 Y82.315 E16.45339
G1 X159.918 Y84.618 E16.71794
G1 X159.928 Y115.061 E20.18886
G1 X159.655 Y117.589 E20.47885
G1 X158.920 Y119.882 E20.75329
G1 X153.833 Y132.406 E22.29453
G1 X152.924 Y133.811 E22.48533
G1 X151.825 Y134.985 E22.66867
G1 X150.816 Y135.779 E22.81512
G1 X149.345 Y136.608 E23.00763
G1 X147.708 Y137.166 E23.20479
G1 X146.070 Y137.406 E23.39352
G1 X139.214 Y137.387 E24.17527
G1 X60.431 Y127.241 E33.23181
G1 X59.513 Y127.063 E33.33845
G1 X57.600 Y126.413 E33.56884
G1 X56.514 Y125.878 E33.70688
G1 X54.776 Y124.737 E33.94384
G1 X53.324 Y123.356 E34.17235
G1 X42.217 Y110.487 E36.11055
G1 X41.380 Y109.274 E36.27852
G1 X40.892 Y108.345 E36.39818
G1 X40.340 Y106.734 E36.59229
G1 X40.100 Y105.144 E36.77565
G1 X40.072 Y98.946 E37.48231
G1 X40.310 Y96.894 E37.71786
G1 X40.989 Y94.944 E37.95323
G1 X41.753 Y93.637 E38.12587
G1 X52.703 Y77.354 E40.36309
G1 X53.318 Y76.650 E40.46974
G1 X54.740 Y75.298 E40.69342
G1 X55.231 Y75.814 F7800.000
G1 F1800
G1 X56.846 Y74.756 E40.91347
G1 X57.676 Y74.328 E41.01994
G1 X59.431 Y73.702 E41.23247
G1 X60.487 Y73.472 E41.35569
G1 X138.716 Y63.389 E50.34865
G1 X139.900 Y63.287 E50.48414
G1 X145.506 Y63.286 E51.12339
G1 X147.547 Y63.530 E51.35771
G1 X148.730 Y63.913 E51.49946
G1 X149.528 Y64.274 E51.59938
G1 X150.533 Y64.892 E51.73387
G1 X151.228 Y65.436 E51.83451
G1 X152.105 Y66.318 E51.97629
G1 X152.717 Y67.130 E52.09223
G1 X153.496 Y68.542 E52.27609
G1 X158.301 Y80.499 E53.74537
G1 X158.936 Y82.464 E53.98080
G1 X159.206 Y84.676 E54.23481
G1 X159.214 Y115.051 E57.69806
G1 X158.960 Y117.421 E57.96978
G1 X158.255 Y119.621 E58.23318
G1 X153.220 Y132.039 E59.76096
G1 X152.367 Y133.365 E59.94070
G1 X151.338 Y134.463 E60.11226
G1 X150.407 Y135.192 E60.24711
G1 X149.023 Y135.969 E60.42812
G1 X147.512 Y136.479 E60.60991
G1 X145.990 Y136.696 E60.78516
G1 X139.284 Y136.676 E61.54974
G1 X60.523 Y126.533 E70.60388
G1 X59.700 Y126.373 E70.69943
G1 X57.873 Y125.753 E70.91941
G1 X56.875 Y125.261 E71.04626
G1 X55.215 Y124.173 E71.27259
G1 X53.821 Y122.842 E71.49233
G1 X42.766 Y110.031 E73.42161
G1 X41.979 Y108.886 E73.58006
G1 X41.531 Y108.023 E73.69090
G1 X41.026 Y106.531 E73.87053
G1 X40.808 Y105.048 E74.04139
G1 X40.786 Y98.942 E74.73750
G1 X41.008 Y97.046 E74.95515
G1 X41.641 Y95.235 E75.17400
G1 X42.349 Y94.030 E75.33322
G1 X53.263 Y77.797 E77.56347
G1 X53.827 Y77.151 E77.66121
G1 X55.188 Y75.855 E77.87550
G1 E74.87550 F2400.00000
G92 E0
G1 X53.154 Y93.072 F7800.000
G1 E3.00000 F2400.00000
G1 F1800
G1 X53.572 Y92.654 E3.06745
G1 X53.584 Y84.670 E3.97775
G1 X53.747 Y83.228 E4.14312
G1 X53.845 Y82.798 E4.19342
G1 X54.361 Y81.325 E4.37138
G1 X54.552 Y80.928 E4.42168
G1 X55.382 Y79.606 E4.59964
G1 X55.657 Y79.261 E4.64993
G1 X56.761 Y78.157 E4.82789
G1 X57.106 Y77.882 E4.87819
G1 X58.428 Y77.052 E5.05614
G1 X58.825 Y76.861 E5.10644
G1 X60.298 Y76.345 E5.28440
G1 X60.728 Y76.247 E5.33470
G1 X62.390 Y76.072 E5.52517
G1 X133.654 Y76.072 E13.65030
G1 X134.072 Y75.654 E13.71775
G1 X134.072 Y71.890 E14.14691
G1 X134.172 Y70.896 E14.26078
G1 X134.270 Y70.466 E14.31108
G1 X134.563 Y69.627 E14.41245
G1 X134.755 Y69.229 E14.46277
G1 X135.228 Y68.476 E14.56412
G1 X135.503 Y68.131 E14.61442
G1 X136.132 Y67.503 E14.71576
G1 X136.476 Y67.228 E14.76606
G1 X137.229 Y66.755 E14.86743
G1 X137.627 Y66.563 E14.91773
G1 X138.466 Y66.270 E15.01908
G1 X138.896 Y66.172 E15.06938
G1 X139.670 Y66.084 E15.15817
G1 X145.610 Y66.072 E15.83547
G1 X146.604 Y66.172 E15.94935
G1 X147.034 Y66.270 E15.99965
G1 X147.873 Y66.563 E16.10101
G1 X148.271 Y66.755 E16.15131
G1 X149.024 Y67.228 E16.25268
G1 X149.369 Y67.503 E16.30299
G1 X149.997 Y68.132 E16.40432
G1 X150.272 Y68.476 E16.45460
G1 X150.745 Y69.229 E16.55599
G1 X150.937 Y69.627 E16.60629
G1 X151.230 Y70.466 E16.70765
G1 X151.328 Y70.896 E16.75794
G1 X151.416 Y71.670 E16.84673
G1 X151.428 Y76.751 E17.42603
G1 X151.606 Y77.073 E17.46804
G1 X152.894 Y77.882 E17.64146
G1 X153.239 Y78.157 E17.69176
G1 X154.343 Y79.261 E17.86972
G1 X154.618 Y79.606 E17.92002
G1 X155.448 Y80.928 E18.09797
G1 X155.639 Y81.325 E18.14827
G1 X156.155 Y82.798 E18.32624
G1 X156.253 Y83.228 E18.37653
G1 X156.428 Y84.890 E18.56699
G1 X156.428 Y115.110 E22.01256
G1 X156.253 Y116.772 E22.20303
G1 X156.155 Y117.202 E22.25333
G1 X155.639 Y118.675 E22.43127
G1 X155.448 Y119.072 E22.48158
G1 X154.618 Y120.394 E22.65953
G1 X154.343 Y120.739 E22.70984
G1 X153.239 Y121.843 E22.88778
G1 X152.894 Y122.118 E22.93809
G1 X151.606 Y122.927 E23.11151
G1 X151.428 Y123.249 E23.15352
G1 X151.416 Y128.330 E23.73283
G1 X151.328 Y129.104 E23.82160
G1 X151.230 Y129.534 E23.87190
G1 X150.937 Y130.373 E23.97327
G1 X150.745 Y130.771 E24.02359
G1 X150.272 Y131.524 E24.12494
G1 X149.997 Y131.869 E24.17525
G1 X149.368 Y132.497 E24.27658
G1 X149.024 Y132.772 E24.32687
G1 X148.271 Y133.245 E24.42825
G1 X147.873 Y133.437 E24.47854
G1 X147.034 Y133.730 E24.57990
G1 X146.604 Y133.828 E24.63019
G1 X145.830 Y133.916 E24.71899
G1 X139.890 Y133.928 E25.39629
G1 X138.896 Y133.828 E25.51018
G1 X138.466 Y133.730 E25.56047
G1 X137.627 Y133.437 E25.66183
G1 X137.229 Y133.245 E25.71212
G1 X136.476 Y132.772 E25.81350
G1 X136.132 Y132.497 E25.86379
G1 X135.503 Y131.869 E25.96512
G1 X135.228 Y131.524 E26.01543
G1 X134.755 Y130.771 E26.11678
G1 X134.563 Y130.373 E26.16710
G1 X134.270 Y129.534 E26.26847
G1 X134.172 Y129.104 E26.31877
G1 X134.072 Y128.110 E26.43264
G1 X134.072 Y124.346 E26.86180
G1 X133.654 Y123.928 E26.92925
G1 X62.390 Y123.928 E35.05438
G1 X60.728 Y123.753 E35.24485
G1 X60.298 Y123.655 E35.29515
G1 X58.825 Y123.139 E35.47311
G1 X58.428 Y122.948 E35.52341
G1 X57.106 Y122.118 E35.70136
G1 X56.761 Y121.843 E35.75166
G1 X55.657 Y120.739 E35.92962
G1 X55.382 Y120.394 E35.97992
G1 X54.552 Y119.072 E36.15787
G1 X54.361 Y118.675 E36.20817
G1 X53.845 Y117.202 E36.38612
G1 X53.747 Y116.772 E36.43643
G1 X53.572 Y115.110 E36.62689
G1 X53.572 Y110.846 E37.11305
G1 X53.154 Y110.428 E37.18050
G1 X49.170 Y110.416 E37.63475
G1 X48.396 Y110.328 E37.72354
G1 X47.966 Y110.230 E37.77383
G1 X47.127 Y109.937 E37.87519
G1 X46.729 Y109.745 E37.92548
G1 X45.976 Y109.272 E38.02685
G1 X45.632 Y108.997 E38.07715
G1 X45.003 Y108.368 E38.17850
G1 X44.728 Y108.024 E38.22881
G1 X44.255 Y107.271 E38.33016
G1 X44.063 Y106.873 E38.38047
G1 X43.770 Y106.034 E38.48183
G1 X43.672 Y105.604 E38.53213
G1 X43.572 Y104.610 E38.64601
G1 X43.584 Y98.670 E39.32331
G1 X43.672 Y97.896 E39.41209
G1 X43.770 Y97.466 E39.46239
G1 X44.063 Y96.627 E39.56375
G1 X44.255 Y96.229 E39.61405
G1 X44.728 Y95.477 E39.71541
G1 X45.003 Y95.132 E39.76571
G1 X45.632 Y94.503 E39.86708
G1 X45.977 Y94.228 E39.91738
G1 X46.729 Y93.755 E40.01873
G1 X47.127 Y93.563 E40.06903
G1 X47.966 Y93.270 E40.17040
G1 X48.396 Y93.172 E40.22070
G1 X49.390 Y93.072 E40.33458
G1 X53.094 Y93.072 E40.75688
G1 E37.75688 F2400.00000
G92 E0
G1 X54.286 Y110.132 F7800.000
G1 E3.00000 F2400.00000
G1 F1800
G1 X53.868 Y109.714 E3.06745
G1 X49.410 Y109.714 E3.57574
G1 X48.516 Y109.623 E3.67821
G1 X48.164 Y109.543 E3.71936
G1 X47.400 Y109.276 E3.81157
G1 X47.075 Y109.119 E3.85272
G1 X46.581 Y108.809 E3.91926
G1 X46.390 Y108.689 E3.94494
G1 X46.108 Y108.464 E3.98610
G1 X45.536 Y107.892 E4.07831
G1 X45.311 Y107.610 E4.11947
G1 X44.881 Y106.925 E4.21168
G1 X44.724 Y106.600 E4.25284
G1 X44.457 Y105.836 E4.34505
G1 X44.377 Y105.484 E4.38621
G1 X44.286 Y104.590 E4.48866
G1 X44.286 Y98.910 E5.13630
G1 X44.377 Y98.016 E5.23876
G1 X44.457 Y97.664 E5.27992
G1 X44.724 Y96.900 E5.37213
G1 X44.881 Y96.575 E5.41328
G1 X45.311 Y95.890 E5.50550
G1 X45.536 Y95.608 E5.54665
G1 X46.108 Y95.036 E5.63888
G1 X46.390 Y94.811 E5.68003
G1 X47.075 Y94.381 E5.77224
G1 X47.400 Y94.224 E5.81340
G1 X48.164 Y93.957 E5.90561
G1 X48.516 Y93.877 E5.94677
G1 X49.230 Y93.796 E6.02869
G1 X53.868 Y93.786 E6.55751
G1 X54.286 Y93.368 E6.62496
G1 X54.296 Y84.730 E7.60984
G1 X54.452 Y83.348 E7.76835
G1 X54.532 Y82.996 E7.80951
G1 X55.021 Y81.599 E7.97832
G1 X55.178 Y81.274 E8.01947
G1 X55.966 Y80.020 E8.18828
G1 X56.191 Y79.738 E8.22944
G1 X57.238 Y78.691 E8.39825
G1 X57.520 Y78.466 E8.43940
G1 X58.774 Y77.678 E8.60821
G1 X59.099 Y77.521 E8.64936
G1 X60.496 Y77.032 E8.81818
G1 X60.848 Y76.952 E8.85933
G1 X62.410 Y76.786 E9.03837
G1 X134.368 Y76.786 E17.24265
G1 X134.786 Y76.368 E17.31010
G1 X134.786 Y71.910 E17.81839
G1 X134.877 Y71.016 E17.92084
G1 X134.957 Y70.664 E17.96200
G1 X135.224 Y69.900 E18.05422
G1 X135.381 Y69.575 E18.09539
G1 X135.811 Y68.890 E18.18760
G1 X136.036 Y68.608 E18.22876
G1 X136.608 Y68.036 E18.32096
G1 X136.890 Y67.811 E18.36211
G1 X137.575 Y67.381 E18.45433
G1 X137.900 Y67.224 E18.49549
G1 X138.664 Y66.957 E18.58770
G1 X139.016 Y66.877 E18.62885
G1 X139.910 Y66.786 E18.73131
G1 X145.770 Y66.796 E19.39948
G1 X146.484 Y66.877 E19.48140
G1 X146.836 Y66.957 E19.52256
G1 X147.600 Y67.224 E19.61478
G1 X147.925 Y67.381 E19.65593
G1 X148.610 Y67.811 E19.74815
G1 X148.892 Y68.036 E19.78932
G1 X149.464 Y68.608 E19.88151
G1 X149.689 Y68.890 E19.92264
G1 X150.119 Y69.575 E20.01488
G1 X150.276 Y69.900 E20.05604
G1 X150.543 Y70.664 E20.14826
G1 X150.623 Y71.016 E20.18940
G1 X150.704 Y71.730 E20.27133
G1 X150.714 Y77.188 E20.89366
G1 X150.933 Y77.537 E20.94058
G1 X151.226 Y77.678 E20.97775
G1 X152.480 Y78.466 E21.14657
G1 X152.762 Y78.691 E21.18772
G1 X153.809 Y79.738 E21.35653
G1 X154.034 Y80.020 E21.39768
G1 X154.822 Y81.274 E21.56649
G1 X154.979 Y81.599 E21.60765
G1 X155.468 Y82.996 E21.77646
G1 X155.548 Y83.348 E21.81761
G1 X155.714 Y84.910 E21.99666
G1 X155.714 Y115.090 E25.43765
G1 X155.548 Y116.652 E25.61670
G1 X155.468 Y117.004 E25.65785
G1 X154.979 Y118.401 E25.82666
G1 X154.822 Y118.726 E25.86782
G1 X154.034 Y119.980 E26.03663
G1 X153.809 Y120.262 E26.07778
G1 X152.762 Y121.309 E26.24659
G1 X152.480 Y121.534 E26.28775
G1 X151.226 Y122.322 E26.45656
G1 X150.933 Y122.463 E26.49373
G1 X150.714 Y122.812 E26.54065
G1 X150.704 Y128.270 E27.16299
G1 X150.623 Y128.984 E27.24490
G1 X150.543 Y129.336 E27.28606
G1 X150.276 Y130.100 E27.37828
G1 X150.119 Y130.425 E27.41945
G1 X149.689 Y131.110 E27.51165
G1 X149.464 Y131.392 E27.55282
G1 X148.892 Y131.964 E27.64501
G1 X148.610 Y132.189 E27.68616
G1 X147.925 Y132.619 E27.77838
G1 X147.600 Y132.776 E27.81954
G1 X146.836 Y133.043 E27.91175
G1 X146.484 Y133.123 E27.95290
G1 X145.590 Y133.214 E28.05536
G1 X139.730 Y133.204 E28.72353
G1 X139.016 Y133.123 E28.80547
G1 X138.664 Y133.043 E28.84662
G1 X137.900 Y132.776 E28.93883
G1 X137.575 Y132.619 E28.97998
G1 X136.890 Y132.189 E29.07220
G1 X136.608 Y131.964 E29.11336
G1 X136.036 Y131.392 E29.20555
G1 X135.811 Y131.110 E29.24671
G1 X135.381 Y130.425 E29.33891
G1 X135.224 Y130.100 E29.38009
G1 X134.957 Y129.336 E29.47231
G1 X134.877 Y128.984 E29.51346
G1 X134.786 Y128.090 E29.61592
G1 X134.786 Y123.632 E30.12421
G1 X134.368 Y123.214 E30.19166
G1 X62.410 Y123.214 E38.39594
G1 X60.848 Y123.048 E38.57498
G1 X60.496 Y122.968 E38.61614
G1 X59.099 Y122.479 E38.78495
G1 X58.774 Y122.322 E38.82610
G1 X57.520 Y121.534 E38.99491
G1 X57.238 Y121.309 E39.03606
G1 X56.191 Y120.262 E39.20488
G1 X55.966 Y119.980 E39.24603
G1 X55.178 Y118.726 E39.41484
G1 X55.021 Y118.401 E39.45599
G1 X54.532 Y117.004 E39.62480
G1 X54.452 Y116.652 E39.66596
G1 X54.296 Y115.270 E39.82447
G1 X54.286 Y110.192 E40.40346
G1 X55.000 Y109.418 F7800.000
G1 F1800
G1 X54.582 Y109.000 E40.47091
G1 X49.430 Y109.000 E41.05834
G1 X48.636 Y108.918 E41.14938
G1 X48.362 Y108.855 E41.18139
G1 X47.674 Y108.615 E41.26445
G1 X47.421 Y108.493 E41.29646
G1 X46.804 Y108.105 E41.37954
G1 X46.585 Y107.930 E41.41154
G1 X46.070 Y107.415 E41.49461
G1 X45.895 Y107.196 E41.52662
G1 X45.507 Y106.579 E41.60969
G1 X45.385 Y106.326 E41.64170
G1 X45.144 Y105.638 E41.72477
G1 X45.082 Y105.364 E41.75678
G1 X45.008 Y104.710 E41.83185
G1 X45.000 Y98.930 E42.49089
G1 X45.082 Y98.136 E42.58192
G1 X45.144 Y97.862 E42.61393
G1 X45.385 Y97.174 E42.69700
G1 X45.507 Y96.921 E42.72901
G1 X45.895 Y96.304 E42.81208
G1 X46.070 Y96.085 E42.84409
G1 X46.585 Y95.570 E42.92716
G1 X46.804 Y95.395 E42.95917
G1 X47.421 Y95.007 E43.04224
G1 X47.674 Y94.885 E43.07425
G1 X48.362 Y94.644 E43.15732
G1 X48.636 Y94.582 E43.18933
G1 X49.430 Y94.500 E43.28036
G1 X54.582 Y94.500 E43.86779
G1 X55.000 Y94.082 E43.93525
G1 X55.000 Y84.930 E44.97873
G1 X55.157 Y83.468 E45.14636
G1 X55.220 Y83.194 E45.17837
G1 X55.682 Y81.873 E45.33803
G1 X55.804 Y81.620 E45.37004
G1 X56.549 Y80.434 E45.52971
G1 X56.724 Y80.214 E45.56172
G1 X57.536 Y79.403 E45.69261
G1 X57.714 Y79.224 E45.72138
G1 X57.934 Y79.049 E45.75339
G1 X59.120 Y78.304 E45.91305
G1 X59.373 Y78.182 E45.94506
G1 X60.694 Y77.720 E46.10473
G1 X60.968 Y77.657 E46.13674
G1 X62.430 Y77.500 E46.30436
G1 X135.082 Y77.500 E54.58778
G1 X135.500 Y77.082 E54.65523
G1 X135.500 Y71.930 E55.24266
G1 X135.582 Y71.136 E55.33369
G1 X135.644 Y70.862 E55.36570
G1 X135.885 Y70.174 E55.44878
G1 X136.007 Y69.921 E55.48080
G1 X136.395 Y69.304 E55.56386
G1 X136.570 Y69.085 E55.59587
G1 X137.085 Y68.570 E55.67893
G1 X137.304 Y68.395 E55.71094
G1 X137.921 Y68.007 E55.79401
G1 X138.174 Y67.885 E55.82603
G1 X138.862 Y67.644 E55.90909
G1 X139.136 Y67.582 E55.94110
G1 X139.930 Y67.500 E56.03214
G1 X145.710 Y67.508 E56.69117
G1 X146.364 Y67.582 E56.76624
G1 X146.638 Y67.644 E56.79825
G1 X147.326 Y67.885 E56.88132
G1 X147.579 Y68.007 E56.91333
G1 X148.196 Y68.395 E56.99640
G1 X148.415 Y68.570 E57.02842
G1 X148.930 Y69.085 E57.11147
G1 X149.105 Y69.304 E57.14347
G1 X149.493 Y69.921 E57.22656
G1 X149.615 Y70.174 E57.25857
G1 X149.856 Y70.862 E57.34164
G1 X149.918 Y71.136 E57.37364
G1 X149.992 Y71.790 E57.44871
G1 X150.000 Y77.683 E58.12067
G1 X150.263 Y78.055 E58.17257
G1 X150.627 Y78.182 E58.21660
G1 X150.880 Y78.304 E58.24860
G1 X152.066 Y79.049 E58.40827
G1 X152.286 Y79.224 E58.44028
G1 X153.276 Y80.214 E58.59995
G1 X153.451 Y80.434 E58.63195
G1 X154.196 Y81.620 E58.79162
G1 X154.318 Y81.873 E58.82363
G1 X154.780 Y83.194 E58.98330
G1 X154.843 Y83.468 E59.01530
G1 X155.000 Y84.930 E59.18293
G1 X155.000 Y115.070 E62.61935
G1 X154.843 Y116.532 E62.78698
G1 X154.780 Y116.806 E62.81899
G1 X154.318 Y118.127 E62.97865
G1 X154.196 Y118.380 E63.01066
G1 X153.451 Y119.566 E63.17033
G1 X153.276 Y119.786 E63.20234
G1 X152.286 Y120.776 E63.36200
G1 X152.066 Y120.951 E63.39401
G1 X150.880 Y121.696 E63.55367
G1 X150.627 Y121.818 E63.58568
G1 X150.263 Y121.945 E63.62971
G1 X150.000 Y122.317 E63.68161
G1 X150.000 Y128.070 E64.33760
G1 X149.918 Y128.864 E64.42864
G1 X149.856 Y129.138 E64.46065
G1 X149.615 Y129.826 E64.54372
G1 X149.493 Y130.079 E64.57574
G1 X149.105 Y130.696 E64.65880
G1 X148.930 Y130.915 E64.69082
G1 X148.415 Y131.430 E64.77387
G1 X148.196 Y131.605 E64.80588
G1 X147.579 Y131.993 E64.88896
G1 X147.326 Y132.115 E64.92096
G1 X146.638 Y132.355 E65.00403
G1 X146.364 Y132.418 E65.03604
G1 X145.570 Y132.500 E65.12708
G1 X139.790 Y132.492 E65.78612
G1 X139.136 Y132.418 E65.86119
G1 X138.862 Y132.355 E65.89320
