; generated by Slic3r 1.35.2-prusa3d-linux64 on 2017-12-22 at 09:50:47

; 

; external perimeters extrusion width = 0.40mm
; perimeters extrusion width = 0.48mm
; infill extrusion width = 0.48mm
; solid infill extrusion width = 0.48mm
; top infill extrusion width = 0.48mm
; support material extrusion width = 0.40mm
; first layer extrusion width = 0.60mm

M107
M140 S60 ; set bed temperature
M104 S200 ; set temperature
G28 ; home all axes
G1 Z5 F5000 ; lift nozzle

; Filament gcode

M109 S200 ; set temperature and wait for it to be reached
G21 ; set units to millimeters
G90 ; use absolute coordinates
M82 ; use absolute distances for extrusion
G92 E0
G1 Z0.400 F7800.000
G1 E-3.00000 F2400.00000
G92 E0
G1 X41.232 Y86.754 F7800.000
G1 E3.00000 F2400.00000
G1 F1800
G1 X42.409 Y85.926 E3.16403
G1 X65.695 Y73.375 E6.18008
G1 X66.825 Y72.964 E6.31722
G1 X67.687 Y72.749 E6.41850
G1 X137.713 Y59.858 E14.53668
G1 X138.846 Y59.761 E14.66629
G1 X148.911 Y59.761 E15.81380
G1 X150.044 Y59.848 E15.94341
G1 X151.145 Y60.105 E16.07226
G1 X152.199 Y60.529 E16.20188
G1 X153.172 Y61.105 E16.33073
G1 X154.050 Y61.826 E16.46035
G1 X154.804 Y62.668 E16.58920
G1 X155.422 Y63.614 E16.71805
G1 X155.891 Y64.650 E16.84766
G1 X156.143 Y65.495 E16.94817
G1 X164.719 Y102.383 E21.26618
G1 X164.904 Y103.776 E21.42639
G1 X164.905 Y115.895 E22.80811
G1 X164.773 Y117.078 E22.94385
G1 X164.456 Y118.219 E23.07882
G1 X155.302 Y136.465 E25.40623
G1 X154.633 Y137.416 E25.53890
G1 X153.818 Y138.256 E25.67235
G1 X152.881 Y138.958 E25.80579
G1 X151.846 Y139.504 E25.93923
G1 X150.521 Y139.932 E26.09791
G1 X149.140 Y140.105 E26.25660
G1 X136.015 Y140.108 E27.75305
G1 X134.982 Y140.030 E27.87118
G1 X66.994 Y127.087 E35.76205
G1 X65.463 Y126.520 E35.94822
G1 X64.098 Y125.721 E36.12852
G1 X41.707 Y110.013 E39.24697
G1 X40.942 Y109.375 E39.36051
G1 X40.270 Y108.641 E39.47405
G1 X39.701 Y107.823 E39.58758
G1 X39.248 Y106.937 E39.70112
G1 X38.827 Y105.645 E39.85598
G1 X38.649 Y104.299 E40.01084
G1 X38.653 Y92.005 E41.41251
G1 X38.799 Y90.877 E41.54213
G1 X39.117 Y89.779 E41.67251
G1 X39.600 Y88.742 E41.80289
G1 X40.236 Y87.792 E41.93327
G1 X41.190 Y86.797 E42.09046
G1 X41.702 Y87.295 F7800.000
G1 F1800
G1 X42.779 Y86.537 E42.24060
G1 X66.017 Y74.014 E45.25028
G1 X67.820 Y73.451 E45.46561
G1 X137.829 Y60.563 E53.58180
G1 X138.861 Y60.475 E53.69992
G1 X148.911 Y60.475 E54.84567
G1 X149.937 Y60.554 E54.96306
G1 X150.946 Y60.791 E55.08119
G1 X151.906 Y61.180 E55.19931
G1 X152.789 Y61.709 E55.31670
G1 X153.582 Y62.366 E55.43410
G1 X154.268 Y63.143 E55.55222
G1 X154.824 Y64.009 E55.66961
G1 X155.243 Y64.957 E55.78773
G1 X164.023 Y102.544 E60.18864
G1 X164.191 Y103.831 E60.33657
G1 X164.192 Y115.852 E61.70712
G1 X164.077 Y116.920 E61.82961
G1 X163.794 Y117.950 E61.95137
G1 X154.702 Y136.077 E64.26354
G1 X154.090 Y136.952 E64.38530
G1 X153.342 Y137.724 E64.50779
G1 X152.481 Y138.366 E64.63028
G1 X151.529 Y138.863 E64.75277
G1 X150.341 Y139.240 E64.89489
G1 X149.097 Y139.392 E65.03773
G1 X136.024 Y139.394 E66.52827
G1 X135.073 Y139.322 E66.63693
G1 X67.192 Y126.400 E74.51540
G1 X65.763 Y125.872 E74.68902
G1 X64.488 Y125.123 E74.85770
G1 X42.132 Y109.439 E77.97124
G1 X41.434 Y108.858 E78.07480
G1 X40.818 Y108.183 E78.17909
G1 X40.298 Y107.430 E78.28338
G1 X39.888 Y106.619 E78.38694
G1 X39.517 Y105.456 E78.52616
G1 X39.362 Y104.245 E78.66537
G1 X39.366 Y92.043 E80.05655
G1 X39.501 Y91.009 E80.17540
G1 X39.796 Y90.003 E80.29498
G1 X40.241 Y89.060 E80.41383
G1 X40.830 Y88.193 E80.53340
G1 X41.661 Y87.338 E80.66931
G1 E77.66931 F2400.00000
G92 E0
G1 X63.572 Y107.288 F7800.000
G1 E3.00000 F2400.00000
G1 F1800
G1 X63.154 Y106.870 E3.06745
G1 X59.632 Y106.870 E3.46894
G1 X59.370 Y106.979 E3.50133
G1 X58.097 Y108.252 E3.70660
G1 X54.422 Y108.252 E4.12562
G1 X54.284 Y108.279 E4.14166
G1 X54.160 Y108.330 E4.15690
G1 X45.125 Y108.330 E5.18709
G1 X43.681 Y107.732 E5.36525
G1 X42.342 Y106.393 E5.58119
G1 X41.744 Y104.949 E5.75935
G1 X41.744 Y90.762 E7.37698
G1 X44.045 Y88.461 E7.74798
G1 X46.291 Y88.461 E8.00414
G1 X46.429 Y88.433 E8.02018
G1 X46.553 Y88.382 E8.03543
G1 X55.589 Y88.382 E9.06562
G1 X57.032 Y88.980 E9.24378
G1 X57.516 Y89.463 E9.32173
G1 X57.778 Y89.572 E9.35411
G1 X63.153 Y89.573 E9.96695
G1 X63.572 Y89.155 E10.03442
G1 X63.572 Y81.890 E10.86278
G1 X63.671 Y80.904 E10.97572
G1 X63.767 Y80.479 E11.02541
G1 X64.058 Y79.640 E11.12662
G1 X64.249 Y79.242 E11.17702
G1 X64.720 Y78.487 E11.27842
G1 X64.995 Y78.142 E11.32872
G1 X65.622 Y77.512 E11.43008
G1 X65.966 Y77.236 E11.48038
G1 X66.723 Y76.758 E11.58249
G1 X67.125 Y76.564 E11.63328
G1 X67.966 Y76.270 E11.73489
G1 X68.396 Y76.172 E11.78519
G1 X69.390 Y76.072 E11.89907
G1 X131.309 Y76.072 E18.95882
G1 X131.728 Y75.654 E19.02627
G1 X131.728 Y69.078 E19.77601
G1 X132.326 Y67.634 E19.95417
G1 X133.665 Y66.295 E20.17011
G1 X134.606 Y65.905 E20.28629
G1 X134.807 Y65.704 E20.31868
G1 X135.182 Y64.799 E20.43043
G1 X136.522 Y63.459 E20.64638
G1 X137.965 Y62.861 E20.82453
G1 X149.858 Y62.861 E22.18042
G1 X151.301 Y63.459 E22.35858
G1 X152.640 Y64.799 E22.57452
G1 X153.238 Y66.242 E22.75268
G1 X153.238 Y78.007 E24.09401
G1 X153.348 Y78.270 E24.12650
G1 X154.329 Y79.247 E24.28433
G1 X154.605 Y79.591 E24.33463
G1 X155.445 Y80.922 E24.51408
G1 X155.639 Y81.323 E24.56488
G1 X156.155 Y82.798 E24.74308
G1 X156.253 Y83.228 E24.79338
G1 X156.416 Y84.670 E24.95875
G1 X156.428 Y99.306 E26.62752
G1 X156.846 Y99.725 E26.69497
G1 X158.427 Y99.725 E26.87526
G1 X159.871 Y100.322 E27.05342
G1 X161.210 Y101.662 E27.26936
G1 X161.808 Y103.105 E27.44752
G1 X161.808 Y117.293 E29.06514
G1 X159.507 Y119.594 E29.43614
G1 X157.261 Y119.594 E29.69231
G1 X157.123 Y119.622 E29.70835
G1 X156.999 Y119.673 E29.72359
G1 X155.280 Y119.673 E29.91957
G1 X154.957 Y119.852 E29.96168
G1 X154.629 Y120.377 E30.03235
G1 X154.354 Y120.723 E30.08265
G1 X153.347 Y121.735 E30.24551
G1 X153.238 Y121.997 E30.27780
G1 X153.238 Y134.307 E31.68132
G1 X150.938 Y136.608 E32.05232
G1 X148.691 Y136.608 E32.30849
G1 X148.553 Y136.635 E32.32452
G1 X148.429 Y136.687 E32.33977
G1 X136.537 Y136.687 E33.69566
G1 X136.413 Y136.635 E33.71091
G1 X136.275 Y136.608 E33.72695
G1 X134.029 Y136.608 E33.98311
G1 X131.728 Y134.307 E34.35411
G1 X131.728 Y124.346 E35.48978
G1 X131.309 Y123.928 E35.55724
G1 X69.390 Y123.928 E42.61698
G1 X68.396 Y123.828 E42.73086
G1 X67.966 Y123.730 E42.78116
G1 X67.127 Y123.437 E42.88252
G1 X66.729 Y123.245 E42.93282
G1 X65.977 Y122.772 E43.03418
G1 X65.632 Y122.497 E43.08448
G1 X65.003 Y121.868 E43.18585
G1 X64.728 Y121.524 E43.23615
G1 X64.255 Y120.771 E43.33751
G1 X64.063 Y120.373 E43.38781
G1 X63.770 Y119.534 E43.48917
G1 X63.672 Y119.104 E43.53947
G1 X63.572 Y118.110 E43.65335
G1 X63.572 Y107.348 E44.88037
G1 X64.286 Y106.574 F7800.000
G1 F1800
G1 X63.868 Y106.156 E44.94782
G1 X59.337 Y106.156 E45.46446
G1 X59.074 Y106.264 E45.49685
G1 X57.801 Y107.538 E45.70212
G1 X54.280 Y107.538 E46.10360
G1 X54.142 Y107.565 E46.11964
G1 X54.018 Y107.616 E46.13489
G1 X45.267 Y107.616 E47.13269
G1 X44.086 Y107.127 E47.27845
G1 X42.947 Y105.989 E47.46200
G1 X42.458 Y104.807 E47.60777
G1 X42.458 Y91.057 E49.17547
G1 X44.341 Y89.175 E49.47902
G1 X46.434 Y89.175 E49.71765
G1 X46.571 Y89.147 E49.73369
G1 X46.695 Y89.096 E49.74894
G1 X55.447 Y89.096 E50.74673
G1 X56.628 Y89.585 E50.89250
G1 X57.220 Y90.178 E50.98797
G1 X57.482 Y90.286 E51.02035
G1 X63.867 Y90.288 E51.74835
G1 X64.286 Y89.869 E51.81581
G1 X64.286 Y81.910 E52.72333
G1 X64.376 Y81.023 E52.82491
G1 X64.455 Y80.676 E52.86557
G1 X64.720 Y79.912 E52.95767
G1 X64.876 Y79.586 E52.99891
G1 X65.305 Y78.900 E53.09116
G1 X65.529 Y78.617 E53.13231
G1 X66.100 Y78.044 E53.22452
G1 X66.381 Y77.819 E53.26568
G1 X67.071 Y77.383 E53.35859
G1 X67.399 Y77.225 E53.40015
G1 X68.164 Y76.957 E53.49257
G1 X68.516 Y76.877 E53.53373
G1 X69.410 Y76.786 E53.63618
G1 X132.024 Y76.786 E60.77507
G1 X132.442 Y76.368 E60.84253
G1 X132.442 Y69.220 E61.65749
G1 X132.931 Y68.039 E61.80326
G1 X134.070 Y66.900 E61.98681
G1 X135.153 Y66.452 E62.12052
G1 X135.354 Y66.251 E62.15291
G1 X135.788 Y65.203 E62.28219
G1 X136.926 Y64.065 E62.46574
G1 X138.107 Y63.576 E62.61151
G1 X149.716 Y63.576 E63.93500
G1 X150.897 Y64.065 E64.08077
G1 X152.035 Y65.203 E64.26431
G1 X152.524 Y66.384 E64.41008
G1 X152.524 Y78.304 E65.76905
G1 X152.634 Y78.567 E65.80153
G1 X153.734 Y79.662 E65.97851
G1 X153.984 Y79.958 E66.02272
G1 X154.822 Y81.274 E66.20055
G1 X154.979 Y81.599 E66.24171
G1 X155.468 Y82.996 E66.41052
G1 X155.548 Y83.348 E66.45167
G1 X155.714 Y84.910 E66.63072
G1 X155.714 Y100.020 E68.35353
G1 X156.132 Y100.439 E68.42099
G1 X158.285 Y100.439 E68.66650
G1 X159.467 Y100.928 E68.81227
G1 X160.605 Y102.066 E68.99582
G1 X161.094 Y103.247 E69.14158
G1 X161.094 Y116.997 E70.70929
G1 X159.212 Y118.880 E71.01283
G1 X157.119 Y118.880 E71.25146
G1 X156.981 Y118.907 E71.26750
G1 X156.857 Y118.959 E71.28275
G1 X154.885 Y118.959 E71.50766
G1 X154.562 Y119.138 E71.54976
G1 X154.044 Y119.965 E71.66098
G1 X153.820 Y120.247 E71.70213
G1 X152.647 Y121.425 E71.89161
G1 X152.539 Y121.687 E71.92386
G1 X152.525 Y134.011 E73.32900
G1 X150.642 Y135.894 E73.63261
G1 X148.549 Y135.894 E73.87124
G1 X148.411 Y135.921 E73.88728
G1 X148.287 Y135.972 E73.90253
G1 X136.679 Y135.972 E75.22602
G1 X136.556 Y135.921 E75.24127
G1 X136.418 Y135.894 E75.25731
G1 X134.325 Y135.894 E75.49594
G1 X132.442 Y134.011 E75.79949
G1 X132.442 Y123.632 E76.98286
G1 X132.024 Y123.214 E77.05031
G1 X69.410 Y123.214 E84.18920
G1 X68.516 Y123.123 E84.29165
G1 X68.164 Y123.043 E84.33281
G1 X67.400 Y122.776 E84.42502
G1 X67.075 Y122.619 E84.46618
G1 X66.390 Y122.189 E84.55839
G1 X66.108 Y121.964 E84.59955
G1 X65.536 Y121.392 E84.69177
G1 X65.311 Y121.110 E84.73292
G1 X64.881 Y120.425 E84.82514
G1 X64.724 Y120.100 E84.86629
G1 X64.457 Y119.336 E84.95851
G1 X64.377 Y118.984 E84.99966
G1 X64.286 Y118.090 E85.10212
G1 X64.286 Y106.634 E86.40828
G1 X65.000 Y105.860 F7800.000
G1 F1800
G1 X64.582 Y105.442 E86.47573
G1 X59.041 Y105.442 E87.10752
G1 X58.778 Y105.550 E87.13991
G1 X57.505 Y106.823 E87.34518
G1 X54.138 Y106.823 E87.72914
G1 X54.000 Y106.851 E87.74518
G1 X53.876 Y106.902 E87.76042
G1 X45.409 Y106.902 E88.72583
G1 X44.490 Y106.521 E88.83920
G1 X43.553 Y105.584 E88.99036
G1 X43.172 Y104.665 E89.10373
G1 X43.172 Y91.353 E90.62151
G1 X44.636 Y89.889 E90.85760
G1 X46.576 Y89.889 E91.07870
G1 X46.714 Y89.862 E91.09474
G1 X46.837 Y89.810 E91.10999
G1 X55.304 Y89.810 E92.07539
G1 X56.223 Y90.191 E92.18877
G1 X56.924 Y90.892 E92.30177
G1 X57.186 Y91.000 E92.33416
G1 X64.581 Y91.002 E93.17730
G1 X65.000 Y90.584 E93.24476
G1 X65.000 Y81.930 E94.23143
G1 X65.081 Y81.143 E94.32164
G1 X65.143 Y80.872 E94.35327
G1 X65.381 Y80.184 E94.43627
G1 X65.503 Y79.931 E94.46835
G1 X65.889 Y79.313 E94.55144
G1 X66.064 Y79.093 E94.58345
G1 X66.578 Y78.576 E94.66651
G1 X66.797 Y78.401 E94.69852
G1 X67.418 Y78.009 E94.78225
G1 X67.673 Y77.886 E94.81457
G1 X68.362 Y77.644 E94.89780
G1 X68.636 Y77.582 E94.92981
G1 X69.430 Y77.500 E95.02084
G1 X132.738 Y77.500 E102.23887
G1 X133.156 Y77.082 E102.30633
G1 X133.156 Y69.362 E103.18652
G1 X133.537 Y68.443 E103.29990
G1 X134.474 Y67.506 E103.45105
G1 X135.393 Y67.125 E103.56443
G1 X135.594 Y67.125 E103.58741
G1 X136.013 Y66.707 E103.65487
G1 X136.013 Y66.526 E103.67546
G1 X136.393 Y65.608 E103.78883
G1 X137.331 Y64.670 E103.93999
G1 X138.249 Y64.290 E104.05336
G1 X149.573 Y64.290 E105.34446
G1 X150.492 Y64.670 E105.45784
G1 X151.430 Y65.608 E105.60899
G1 X151.810 Y66.526 E105.72237
G1 X151.810 Y78.666 E107.10649
G1 X151.952 Y78.961 E107.14375
G1 X152.272 Y79.214 E107.19030
G1 X153.215 Y80.154 E107.34206
G1 X153.494 Y80.503 E107.39300
G1 X154.196 Y81.620 E107.54340
G1 X154.318 Y81.873 E107.57541
G1 X154.780 Y83.194 E107.73507
G1 X154.843 Y83.468 E107.76708
G1 X155.000 Y84.930 E107.93471
G1 X155.000 Y100.734 E109.73666
G1 X155.418 Y101.153 E109.80412
G1 X158.143 Y101.153 E110.11486
G1 X159.062 Y101.533 E110.22823
G1 X160.000 Y102.471 E110.37939
G1 X160.380 Y103.389 E110.49276
G1 X160.380 Y116.702 E112.01054
G1 X158.916 Y118.166 E112.24663
G1 X156.977 Y118.166 E112.46773
G1 X156.839 Y118.193 E112.48377
G1 X156.715 Y118.244 E112.49902
G1 X154.489 Y118.244 E112.75285
G1 X154.166 Y118.423 E112.79495
G1 X153.460 Y119.552 E112.94672
G1 X153.286 Y119.772 E112.97873
G1 X152.298 Y120.764 E113.13836
G1 X151.951 Y121.042 E113.18903
G1 X151.810 Y121.335 E113.22610
G1 X151.810 Y133.715 E114.63762
G1 X150.346 Y135.180 E114.87371
G1 X148.407 Y135.180 E115.09481
G1 X148.269 Y135.207 E115.11085
G1 X148.145 Y135.258 E115.12610
G1 X136.821 Y135.258 E116.41720
G1 X136.698 Y135.207 E116.43245
G1 X136.560 Y135.180 E116.44849
G1 X134.620 Y135.180 E116.66959
G1 X133.156 Y133.715 E116.90568
G1 X133.156 Y122.918 E118.13675
G1 X132.738 Y122.500 E118.20420
G1 X69.430 Y122.500 E125.42223
G1 X68.636 Y122.418 E125.51326
G1 X68.362 Y122.356 E125.54527
G1 X67.674 Y122.115 E125.62834
G1 X67.421 Y121.993 E125.66035
G1 X66.804 Y121.605 E125.74342
G1 X66.585 Y121.430 E125.77543
G1 X66.070 Y120.915 E125.85850
G1 X65.895 Y120.696 E125.89051
G1 X65.507 Y120.079 E125.97358
G1 X65.385 Y119.826 E126.00559
G1 X65.144 Y119.138 E126.08867
G1 X65.082 Y118.864 E126.12067
G1 X65.000 Y118.070 E126.21171
G1 X65.000 Y105.920 E127.59701
G1 X65.715 Y105.146 F7800.000
G1 F1800
G1 X65.296 Y104.727 E127.66446
G1 X58.745 Y104.727 E128.41140
G1 X58.483 Y104.836 E128.44379
G1 X57.209 Y106.109 E128.64907
G1 X53.996 Y106.109 E129.01549
G1 X53.858 Y106.137 E129.03153
G1 X53.734 Y106.188 E129.04678
G1 X51.264 Y106.188 E129.32839
G1 X51.213 Y106.167 E129.33472
G1 X50.929 Y106.167 E129.36711
G1 X50.877 Y106.188 E129.37344
G1 X48.407 Y106.188 E129.65505
G1 X48.356 Y106.167 E129.66138
G1 X48.072 Y106.167 E129.69377
G1 X48.021 Y106.188 E129.70010
G1 X45.551 Y106.188 E129.98171
G1 X44.895 Y105.916 E130.06269
G1 X44.158 Y105.179 E130.18146
G1 X43.886 Y104.523 E130.26244
G1 X43.886 Y91.649 E131.73029
G1 X44.932 Y90.603 E131.89893
G1 X46.718 Y90.603 E132.10250
G1 X46.856 Y90.576 E132.11854
G1 X46.979 Y90.525 E132.13379
G1 X49.449 Y90.525 E132.41540
G1 X49.500 Y90.546 E132.42173
G1 X49.785 Y90.546 E132.45412
G1 X49.836 Y90.525 E132.46045
G1 X52.306 Y90.525 E132.74206
G1 X52.357 Y90.546 E132.74839
G1 X52.641 Y90.546 E132.78078
G1 X52.692 Y90.525 E132.78711
G1 X55.162 Y90.525 E133.06872
G1 X55.819 Y90.796 E133.14971
G1 X56.628 Y91.606 E133.28024
G1 X56.891 Y91.715 E133.31263
G1 X65.296 Y91.716 E134.27091
G1 X65.714 Y91.298 E134.33837
G1 X65.715 Y81.950 E135.40420
G1 X65.786 Y81.262 E135.48305
G1 X65.830 Y81.069 E135.50564
G1 X66.043 Y80.456 E135.57955
G1 X66.129 Y80.275 E135.60246
G1 X66.473 Y79.725 E135.67639
G1 X66.598 Y79.568 E135.69926
G1 X67.055 Y79.109 E135.77317
G1 X67.212 Y78.983 E135.79604
G1 X67.765 Y78.634 E135.87057
G1 X67.947 Y78.546 E135.89366
G1 X68.560 Y78.332 E135.96770
G1 X68.755 Y78.287 E135.99056
G1 X69.450 Y78.215 E136.07018
G1 X133.452 Y78.215 E143.36735
G1 X133.870 Y77.796 E143.43480
G1 X133.870 Y69.504 E144.38022
G1 X134.142 Y68.848 E144.46121
G1 X134.879 Y68.111 E144.57997
G1 X135.535 Y67.840 E144.66095
G1 X136.309 Y67.840 E144.74917
G1 X136.727 Y67.421 E144.81662
G1 X136.727 Y66.669 E144.90244
G1 X136.999 Y66.012 E144.98342
G1 X137.735 Y65.276 E145.10218
G1 X138.392 Y65.004 E145.18316
G1 X140.861 Y65.004 E145.46478
G1 X140.913 Y65.025 E145.47111
G1 X141.197 Y65.025 E145.50350
G1 X141.248 Y65.004 E145.50983
G1 X143.718 Y65.004 E145.79144
G1 X143.769 Y65.025 E145.79777
G1 X144.054 Y65.025 E145.83016
G1 X144.105 Y65.004 E145.83649
G1 X146.575 Y65.004 E146.11810
G1 X146.626 Y65.025 E146.12443
G1 X146.910 Y65.025 E146.15682
G1 X146.961 Y65.004 E146.16315
G1 X149.431 Y65.004 E146.44476
G1 X150.088 Y65.276 E146.52574
G1 X150.824 Y66.012 E146.64451
G1 X151.096 Y66.669 E146.72549
G1 X151.096 Y79.073 E148.13981
G1 X151.275 Y79.396 E148.18191
G1 X151.640 Y79.624 E148.23093
G1 X151.797 Y79.749 E148.25380
G1 X152.697 Y80.645 E148.39866
G1 X152.900 Y80.900 E148.43577
G1 X153.570 Y81.966 E148.57931
G1 X153.657 Y82.146 E148.60217
G1 X154.093 Y83.392 E148.75269
G1 X154.138 Y83.588 E148.77555
G1 X154.285 Y84.950 E148.93176
G1 X154.285 Y101.527 E150.82182
